X:1290
T: Frances Keegan's
C: B. McComiskey
N: Named for Billy's aunt who passed away in January '04.
L: 1/8
M: 4/4
R: reel
Q: 1/4=180
K: A
E2 AE F2 DF|EAcA eAce|abae f2 af|(3efe ce fa{b}af|
e2 ce fd ~d2|eAcA BAFA|dcde fbaf|1 ecBd cAAf :|2 ecBd cAce||
a2 ea fecf|eAce fB ~B2|cBce fecf|ea ~a2 fece|
[1 a2 ea fAdf|eAcA BAFA|dcde fbaf|ecBd cAce :|
[2 acea fAdf|eAcA BAFA|dcde fbaf|ecBd cA A2 ||
